static/compliance-buttons/lottie-1.0-light.svg

<svg width="72" height="28" viewBox="0 0 72 28" fill="none" xmlns="http://www.w3.org/2000/svg">
<rect width="72" height="28" rx="8" fill="white"/>
<rect x="0.5" y="0.5" width="71" height="27" rx="7.5" stroke="black" stroke-opacity="0.1"/>
<path fill-rule="evenodd" clip-rule="evenodd" d="M11.4234 6.9345C11.7354 6.54132 12.3071 6.47552 12.7003 6.78755C13.0266 7.0465 13.356 7.35633 13.5952 7.59145C13.7169 7.71101 13.8195 7.81543 13.8921 7.89035C13.9284 7.92787 13.9574 7.95816 13.9776 7.97945C13.9877 7.99009 13.9957 7.9985 14.0013 8.00444L14.0079 8.01148L14.0107 8.0145L14.0108 8.0146C14.0108 8.01464 14.0109 8.01468 13.3645 8.61936L14.0109 8.01468C14.3538 8.38125 14.3346 8.95639 13.968 9.2993C13.6015 9.64215 13.0265 9.62302 12.6836 9.25661C12.6836 9.25661 12.6836 9.25661 12.6836 9.25661C12.6836 9.25659 12.6835 9.25656 12.6835 9.25654C12.6835 9.2565 12.6834 9.25647 12.6834 9.25644L12.6827 9.25573L12.6785 9.25126C12.6746 9.24706 12.6684 9.24047 12.66 9.23171C12.6434 9.21419 12.6183 9.18801 12.5863 9.1549C12.522 9.08856 12.4302 8.99506 12.3212 8.88799C12.0993 8.66988 11.8227 8.41166 11.5704 8.21141C11.1772 7.89938 11.1114 7.32769 11.4234 6.9345ZM14.367 9.91195C14.8124 9.68045 15.3611 9.85383 15.5926 10.2992C16.2995 11.6592 16.6035 13.0761 16.6035 14.8083C16.6035 18.4025 15.5767 20.5921 14.1407 21.8188C12.7263 23.0271 11.0682 23.1665 10.0675 22.9713C9.57484 22.8751 9.25338 22.3978 9.34951 21.9052C9.44564 21.4125 9.92295 21.091 10.4156 21.1872C10.9676 21.2949 12.0361 21.226 12.96 20.4367C13.8624 19.6658 14.7858 18.0684 14.7858 14.8083C14.7858 13.3126 14.5286 12.1935 13.9798 11.1376C13.7483 10.6922 13.9216 10.1434 14.367 9.91195Z" fill="#6DDAD2"/>
<path fill-rule="evenodd" clip-rule="evenodd" d="M12.4882 15.7613C10.631 16.224 9.34056 17.1184 8.97257 18.859C8.905 19.1786 8.98227 19.7294 9.27883 20.2551C9.56869 20.7689 9.97735 21.1016 10.4158 21.1872L10.0677 22.9712C8.95353 22.7538 8.15889 21.9694 7.69566 21.1483C7.23914 20.3391 7.01353 19.3373 7.19415 18.483C7.76661 15.7753 9.85673 14.5436 12.0488 13.9975C14.0544 13.4977 16.3444 13.5147 18.0754 13.5275C18.2086 13.5285 18.3386 13.5295 18.4648 13.5302L18.4547 15.3479C18.3394 15.3473 18.2227 15.3465 18.1046 15.3457C16.3291 15.3338 14.2597 15.3199 12.4882 15.7613ZM19.374 13.5397L22.555 13.5586L22.5442 15.3763L19.3632 15.3574L19.374 13.5397ZM23.5342 13.5965H27.1318V15.4142H23.5342V13.5965Z" fill="#006A5F"/>
<path d="M9.78777 6.81773C10.2897 6.81773 10.6966 6.41082 10.6966 5.90887C10.6966 5.40691 10.2897 5 9.78777 5C9.28582 5 8.87891 5.40691 8.87891 5.90887C8.87891 6.41082 9.28582 6.81773 9.78777 6.81773Z" fill="#6DDAD2"/>
<path fill-rule="evenodd" clip-rule="evenodd" d="M31.6318 4C31.908 4 32.1318 4.21124 32.1318 4.47182V23.5282C32.1318 23.7888 31.908 24 31.6318 24C31.3557 24 31.1318 23.7888 31.1318 23.5282V4.47182C31.1318 4.21124 31.3557 4 31.6318 4Z" fill="black" fill-opacity="0.05"/>
<path d="M60.4429 13.6175C59.896 13.6175 59.4237 13.5039 59.026 13.2766C58.6307 13.047 58.3264 12.7227 58.1134 12.3036C57.9003 11.8822 57.7938 11.3862 57.7938 10.8157C57.7938 10.2546 57.9003 9.76219 58.1134 9.33842C58.3288 8.91229 58.6295 8.58085 59.0154 8.34411C59.4012 8.105 59.8546 7.98544 60.3754 7.98544C60.7116 7.98544 61.0289 8.03989 61.3271 8.14879C61.6278 8.25533 61.893 8.42105 62.1226 8.64595C62.3546 8.87086 62.5369 9.15732 62.6695 9.50533C62.8021 9.85097 62.8683 10.2629 62.8683 10.7411V11.1353H58.3975V10.2688H61.6361C61.6337 10.0226 61.5805 9.80362 61.4763 9.61186C61.3721 9.41773 61.2265 9.26503 61.0395 9.15376C60.8548 9.0425 60.6394 8.98686 60.3932 8.98686C60.1304 8.98686 59.8996 9.05078 59.7007 9.17862C59.5019 9.3041 59.3468 9.46982 59.2355 9.67578C59.1266 9.87938 59.071 10.1031 59.0686 10.3469V11.1033C59.0686 11.4206 59.1266 11.6928 59.2426 11.9201C59.3586 12.145 59.5208 12.3178 59.7291 12.4386C59.9375 12.5569 60.1813 12.6161 60.4607 12.6161C60.6477 12.6161 60.817 12.5901 60.9685 12.538C61.12 12.4835 61.2514 12.4042 61.3627 12.3001C61.4739 12.1959 61.558 12.0669 61.6148 11.913L62.8151 12.0479C62.7393 12.3652 62.5949 12.6422 62.3818 12.8789C62.1711 13.1133 61.9012 13.2956 61.5722 13.4258C61.2431 13.5536 60.8667 13.6175 60.4429 13.6175Z" fill="#006A5F"/>
<path d="M55.4207 13.511V8.05646H56.7062V13.511H55.4207ZM56.067 7.28232C55.8634 7.28232 55.6882 7.21484 55.5415 7.0799C55.3947 6.94259 55.3213 6.77805 55.3213 6.58629C55.3213 6.39216 55.3947 6.22763 55.5415 6.09268C55.6882 5.95537 55.8634 5.88672 56.067 5.88672C56.273 5.88672 56.4482 5.95537 56.5926 6.09268C56.7394 6.22763 56.8128 6.39216 56.8128 6.58629C56.8128 6.77805 56.7394 6.94259 56.5926 7.0799C56.4482 7.21484 56.273 7.28232 56.067 7.28232Z" fill="#006A5F"/>
<path d="M54.3456 8.05646V9.05078H51.21V8.05646H54.3456ZM51.9841 6.74964H53.2696V11.8704C53.2696 12.0432 53.2957 12.1758 53.3477 12.2681C53.4022 12.3581 53.4732 12.4196 53.5608 12.4528C53.6484 12.4859 53.7455 12.5025 53.852 12.5025C53.9325 12.5025 54.0059 12.4966 54.0722 12.4847C54.1408 12.4729 54.1929 12.4622 54.2284 12.4528L54.445 13.4577C54.3764 13.4814 54.2781 13.5075 54.1503 13.5359C54.0248 13.5643 53.8709 13.5808 53.6887 13.5856C53.3667 13.5951 53.0767 13.5465 52.8186 13.44C52.5606 13.3311 52.3558 13.163 52.2043 12.9357C52.0551 12.7085 51.9817 12.4244 51.9841 12.0835V6.74964Z" fill="#006A5F"/>
<path d="M50.5468 8.05646V9.05078H47.4111V8.05646H50.5468ZM48.1853 6.74964H49.4708V11.8704C49.4708 12.0432 49.4968 12.1758 49.5489 12.2681C49.6034 12.3581 49.6744 12.4196 49.762 12.4528C49.8496 12.4859 49.9466 12.5025 50.0532 12.5025C50.1337 12.5025 50.2071 12.4966 50.2733 12.4847C50.342 12.4729 50.3941 12.4622 50.4296 12.4528L50.6462 13.4577C50.5776 13.4814 50.4793 13.5075 50.3515 13.5359C50.226 13.5643 50.0721 13.5808 49.8898 13.5856C49.5679 13.5951 49.2778 13.5465 49.0198 13.44C48.7617 13.3311 48.557 13.163 48.4055 12.9357C48.2563 12.7085 48.1829 12.4244 48.1853 12.0835V6.74964Z" fill="#006A5F"/>
<path d="M44.1183 13.6175C43.5857 13.6175 43.124 13.5004 42.7334 13.266C42.3428 13.0316 42.0397 12.7037 41.8243 12.2823C41.6112 11.8609 41.5047 11.3685 41.5047 10.805C41.5047 10.2416 41.6112 9.74799 41.8243 9.32422C42.0397 8.90045 42.3428 8.57138 42.7334 8.337C43.124 8.10263 43.5857 7.98544 44.1183 7.98544C44.651 7.98544 45.1127 8.10263 45.5033 8.337C45.8939 8.57138 46.1958 8.90045 46.4088 9.32422C46.6243 9.74799 46.732 10.2416 46.732 10.805C46.732 11.3685 46.6243 11.8609 46.4088 12.2823C46.1958 12.7037 45.8939 13.0316 45.5033 13.266C45.1127 13.5004 44.651 13.6175 44.1183 13.6175ZM44.1254 12.5877C44.4143 12.5877 44.6557 12.5084 44.8499 12.3498C45.044 12.1888 45.1884 11.9734 45.2831 11.7035C45.3802 11.4336 45.4287 11.1329 45.4287 10.8015C45.4287 10.4677 45.3802 10.1658 45.2831 9.89595C45.1884 9.6237 45.044 9.40708 44.8499 9.24609C44.6557 9.08511 44.4143 9.00462 44.1254 9.00462C43.8295 9.00462 43.5833 9.08511 43.3868 9.24609C43.1927 9.40708 43.0471 9.6237 42.95 9.89595C42.8553 10.1658 42.808 10.4677 42.808 10.8015C42.808 11.1329 42.8553 11.4336 42.95 11.7035C43.0471 11.9734 43.1927 12.1888 43.3868 12.3498C43.5833 12.5084 43.8295 12.5877 44.1254 12.5877Z" fill="#006A5F"/>
<path d="M36.1318 13.511V6.23828H37.4493V12.4066H40.6524V13.511H36.1318Z" fill="#006A5F"/>
<path d="M45.4237 22.1132C45.0871 22.1117 44.7995 22.023 44.5608 21.8468C44.3222 21.6707 44.1396 21.4143 44.0132 21.0777C43.8868 20.741 43.8236 20.3355 43.8236 19.861C43.8236 19.388 43.8868 18.9839 44.0132 18.6487C44.1411 18.3135 44.3243 18.0578 44.5629 17.8816C44.803 17.7055 45.0899 17.6174 45.4237 17.6174C45.7575 17.6174 46.0438 17.7062 46.2824 17.8838C46.521 18.0599 46.7036 18.3156 46.83 18.6508C46.9578 18.9846 47.0218 19.388 47.0218 19.861C47.0218 20.3369 46.9585 20.7431 46.8321 21.0798C46.7057 21.415 46.5232 21.6714 46.2845 21.849C46.0459 22.0251 45.759 22.1132 45.4237 22.1132ZM45.4237 21.5443C45.7192 21.5443 45.95 21.4001 46.1162 21.1118C46.2838 20.8234 46.3676 20.4065 46.3676 19.861C46.3676 19.4988 46.3293 19.1927 46.2526 18.9427C46.1773 18.6913 46.0686 18.501 45.9266 18.3717C45.786 18.241 45.6183 18.1757 45.4237 18.1757C45.1297 18.1757 44.8989 18.3206 44.7313 18.6103C44.5637 18.9001 44.4791 19.317 44.4777 19.861C44.4777 20.2247 44.5154 20.5322 44.5906 20.7836C44.6673 21.0336 44.776 21.2233 44.9166 21.3525C45.0573 21.4804 45.2263 21.5443 45.4237 21.5443Z" fill="black" fill-opacity="0.8"/>
<path d="M42.7918 22.0812C42.6753 22.0812 42.5752 22.04 42.4914 21.9576C42.4076 21.8738 42.3657 21.773 42.3657 21.6551C42.3657 21.5386 42.4076 21.4392 42.4914 21.3568C42.5752 21.273 42.6753 21.2311 42.7918 21.2311C42.9083 21.2311 43.0084 21.273 43.0922 21.3568C43.176 21.4392 43.218 21.5386 43.218 21.6551C43.218 21.7332 43.1981 21.8049 43.1583 21.8703C43.1199 21.9342 43.0688 21.9853 43.0049 22.0237C42.941 22.062 42.8699 22.0812 42.7918 22.0812Z" fill="black" fill-opacity="0.8"/>
<path d="M41.4351 17.6771V22.0407H40.7746V18.3376H40.749L39.705 19.0194V18.3887L40.7938 17.6771H41.4351Z" fill="black" fill-opacity="0.8"/>
<path d="M39.1894 18.768L38.0026 22.0407H37.3208L36.1318 18.768H36.8158L37.6446 21.2865H37.6787L38.5054 18.768H39.1894Z" fill="black" fill-opacity="0.8"/>
</svg>

<svg xmlns="http://www.w3.org/2000/svg" width="72" height="28" fill="none"><rect width="72" height="28" fill="#fff" rx="8"/><rect width="71" height="27" x=".5" y=".5" stroke="#000" stroke-opacity=".1" rx="7.5"/><path fill="#6DDAD2" fill-rule="evenodd" d="M11.423 6.934a.909.909 0 0 1 1.277-.146c.327.258.656.568.895.803a17.28 17.28 0 0 1 .383.388l.023.025.007.007.003.004-.646.604.646-.604a.909.909 0 0 1-1.327 1.242l-.001-.001-.005-.005a10.134 10.134 0 0 0-1.108-1.04.909.909 0 0 1-.147-1.277Zm2.944 2.978a.909.909 0 0 1 1.226.387c.706 1.36 1.01 2.777 1.01 4.51 0 3.594-1.026 5.783-2.462 7.01-1.415 1.208-3.073 1.348-4.073 1.152a.909.909 0 0 1 .348-1.784c.552.108 1.62.039 2.544-.75.902-.771 1.826-2.369 1.826-5.629 0-1.495-.257-2.614-.806-3.67a.909.909 0 0 1 .387-1.226Z" clip-rule="evenodd"/><path fill="#006A5F" fill-rule="evenodd" d="M12.488 15.761c-1.857.463-3.147 1.357-3.515 3.098-.068.32.01.87.306 1.396.29.514.698.847 1.137.932l-.348 1.784c-1.114-.217-1.91-1.002-2.372-1.823-.457-.809-.682-1.81-.502-2.665.573-2.708 2.663-3.94 4.855-4.486 2.005-.5 4.295-.482 6.026-.47l.39.003-.01 1.818-.35-.002c-1.776-.012-3.845-.026-5.617.415Zm6.886-2.221 3.181.019-.01 1.817-3.182-.019.011-1.817Zm4.16.057h3.598v1.817h-3.598v-1.817Z" clip-rule="evenodd"/><path fill="#6DDAD2" d="M9.788 6.818a.909.909 0 1 0 0-1.818.909.909 0 0 0 0 1.818Z"/><path fill="#000" fill-opacity=".05" fill-rule="evenodd" d="M31.632 4c.276 0 .5.211.5.472v19.056c0 .26-.224.472-.5.472s-.5-.211-.5-.472V4.472c0-.26.224-.472.5-.472Z" clip-rule="evenodd"/><path fill="#006A5F" d="M60.443 13.617c-.547 0-1.02-.113-1.417-.34-.395-.23-.7-.554-.913-.973-.213-.422-.32-.918-.32-1.488 0-.561.107-1.054.32-1.478.216-.426.517-.757.902-.994.386-.239.84-.359 1.36-.359.337 0 .654.055.952.164.3.106.566.272.796.497.232.225.414.511.547.86.132.345.198.757.198 1.235v.394h-4.47v-.866h3.238a1.383 1.383 0 0 0-.16-.657 1.162 1.162 0 0 0-.437-.458 1.228 1.228 0 0 0-.646-.167c-.263 0-.493.064-.692.192a1.322 1.322 0 0 0-.465.497 1.431 1.431 0 0 0-.167.67v.757c0 .318.058.59.174.817.116.225.278.398.486.519.209.118.452.177.732.177.187 0 .356-.026.508-.078a1.13 1.13 0 0 0 .394-.238.992.992 0 0 0 .252-.387l1.2.135c-.076.317-.22.594-.433.83-.21.235-.48.418-.81.548-.329.128-.705.191-1.13.191ZM55.42 13.511V8.056h1.286v5.455h-1.285Zm.647-6.229a.75.75 0 0 1-.526-.202.652.652 0 0 1-.22-.494c0-.194.074-.358.22-.493a.742.742 0 0 1 .526-.206c.206 0 .381.068.526.206.146.135.22.3.22.493a.652.652 0 0 1-.22.494.742.742 0 0 1-.526.202ZM54.346 8.056v.995H51.21v-.995h3.136ZM51.984 6.75h1.286v5.12c0 .173.026.306.078.398.054.09.125.152.213.185.087.033.184.05.291.05.08 0 .154-.006.22-.018.069-.012.12-.023.156-.032l.217 1.005a2.42 2.42 0 0 1-.756.128c-.322.01-.612-.04-.87-.146a1.353 1.353 0 0 1-.615-.504c-.149-.227-.222-.512-.22-.852V6.75ZM50.547 8.056v.995H47.41v-.995h3.136ZM48.185 6.75h1.286v5.12c0 .173.026.306.078.398.054.09.125.152.213.185s.185.05.291.05c.08 0 .154-.006.22-.018.069-.012.121-.023.157-.032l.216 1.005a2.42 2.42 0 0 1-.756.128c-.322.01-.612-.04-.87-.146a1.353 1.353 0 0 1-.614-.504c-.15-.227-.223-.512-.22-.852V6.75ZM44.118 13.617c-.532 0-.994-.117-1.385-.351a2.388 2.388 0 0 1-.909-.984c-.213-.421-.32-.914-.32-1.477 0-.563.107-1.057.32-1.48.216-.425.519-.754.91-.988.39-.234.852-.352 1.384-.352.533 0 .995.118 1.385.352.39.234.693.563.906.987.215.424.323.918.323 1.481 0 .563-.108 1.056-.323 1.477-.213.422-.515.75-.906.984-.39.234-.852.351-1.385.351Zm.007-1.03c.29 0 .53-.079.725-.237.194-.161.338-.377.433-.646.097-.27.146-.571.146-.902a2.66 2.66 0 0 0-.146-.906 1.433 1.433 0 0 0-.433-.65 1.097 1.097 0 0 0-.725-.241c-.295 0-.542.08-.738.241-.194.161-.34.378-.437.65-.095.27-.142.572-.142.905 0 .332.047.633.142.902.097.27.243.486.437.647.196.158.443.238.738.238ZM36.132 13.511V6.238h1.317v6.169h3.203v1.104h-4.52Z"/><path fill="#000" fill-opacity=".8" d="M45.424 22.113a1.424 1.424 0 0 1-.863-.266c-.239-.176-.421-.433-.548-.77-.126-.336-.19-.742-.19-1.216 0-.473.064-.877.19-1.212.128-.335.311-.591.55-.767.24-.177.527-.265.86-.265.334 0 .62.09.86.267.238.176.42.432.547.767.128.334.192.737.192 1.21 0 .476-.063.882-.19 1.219-.126.335-.309.591-.547.769a1.41 1.41 0 0 1-.861.264Zm0-.569c.295 0 .526-.144.692-.432.168-.289.252-.705.252-1.251 0-.362-.039-.668-.115-.918-.076-.252-.184-.442-.326-.571a.713.713 0 0 0-.503-.196c-.294 0-.525.145-.693.434-.167.29-.252.707-.253 1.251 0 .364.037.671.113.923.076.25.185.44.326.569.14.127.31.191.507.191ZM42.792 22.081a.413.413 0 0 1-.3-.123.412.412 0 0 1-.126-.303c0-.116.042-.216.125-.298a.41.41 0 0 1 .3-.126.41.41 0 0 1 .301.126.403.403 0 0 1 .126.298.442.442 0 0 1-.213.369.407.407 0 0 1-.213.057ZM41.435 17.677v4.364h-.66v-3.703h-.026l-1.044.681v-.63l1.089-.712h.641ZM39.19 18.768l-1.187 3.273h-.682l-1.19-3.273h.685l.829 2.518h.034l.826-2.518h.684Z"/></svg>
